X:1
T: Lord Chinchester Spencer's Reel
M: C|
B: James Campbell's Collection 1798
Z: source from Highland Music Trust, chords by Gary Whaley
L: 1/8
K:G
B[|:"G"GBdB (G/A/B/c/ d)B|"D"ca"G"Bg "D"aAAB|"G"GBdB (G/A/B/c/ d)B|"D"cA(Dc) "G"BGG :|]
(g[|:"G"g)dBd gb"D"af|"G"gdBd "D"caA(f|"G"g)dBd gb"D"af|"G"gd"C/G"ec "G"BGG(f|
|"G"g)dBd gb"D"af|"G"gdBd "D"caAf |"G"gb"D"af "G"gbdB |"C"ca"D"Ac "G"BGG :|]
